svg/blobs-icons/no-decorations/paint-roller.svg

<svg xmlns="http://www.w3.org/2000/svg" xmlns:xlink="http://www.w3.org/1999/xlink" preserveAspectRatio="xMidYMid" width="196" height="218" viewBox="0 0 196 218"><defs><style>.cls-3{fill:#ff3a2f}.cls-4{fill:#142a3b}.cls-6{fill:#2476ff}.cls-7{fill:#000;opacity:.35}</style></defs><g id="group-17svg"><path d="M82.178 97.486c-1.997.0-3.614-1.619-3.614-3.614V74.843c0-16.273 13.268-29.511 29.578-29.511h57.61c12.323.0 22.349-9.996 22.349-22.282V23.035s-22.019.0-22.019.0C164.086 23.035 162.468 21.416 162.468 19.42c0-1.996 1.61800000000002-3.615 3.614-3.615H195.33s0 7.245.0 7.245c0 16.272-13.268 29.512-29.578 29.512h-57.61c-12.323.0-22.349 9.994-22.349 22.281V93.872C85.793 95.867 84.174 97.486 82.178 97.486z" id="path-1" class="cls-3" fill-rule="evenodd"/><path d="M99.202 203.93s-37.817.0-37.817.0.0-110.059.0-110.059 37.817.0 37.817.0.0 110.059.0 110.059z" id="path-2" class="cls-4" fill-rule="evenodd"/><path d="M16.948 23.035s-13.343.0-13.343.0c-1.996.0-3.614-1.619-3.614-3.615.0-1.996 1.618-3.615 3.614-3.615H16.948c1.996.0 3.615 1.619 3.615 3.615.0 1.996-1.619 3.615-3.615 3.615z" id="path-3" class="cls-3" fill-rule="evenodd"/><path d="M167.186 38.842s-150.238.0-150.238.0.0-38.843.0-38.843 150.238.0 150.238.0.0 38.843.0 38.843z" id="path-4" class="cls-6" fill-rule="evenodd"/><path d="M167.186 38.842s-150.238.0-150.238.0.0-15.718.0-15.718 150.238.0 150.238.0.0 15.718.0 15.718z" id="path-5" class="cls-7" fill-rule="evenodd"/><path d="M91.106 216.877s-21.624.0-21.624.0.0-12.947.0-12.947 21.624.0 21.624.0.0 12.947.0 12.947z" id="path-6" class="cls-3" fill-rule="evenodd"/></g></svg>

<svg xmlns="http://www.w3.org/2000/svg" xmlns:xlink="http://www.w3.org/1999/xlink" preserveAspectRatio="xMidYMid" width="196" height="218" viewBox="0 0 196 218">
  <defs>
    <style>

      .cls-3 {
        fill: #ff3a2f;
      }

      .cls-4 {
        fill: #142a3b;
      }

      .cls-6 {
        fill: #2476ff;
      }

      .cls-7 {
        fill: #000000;
        opacity: 0.35;
      }
    </style>
  </defs>
  <g id="group-17svg">
    <path d="M82.178,97.486 C80.181,97.486 78.564,95.867 78.564,93.872 C78.564,93.872 78.564,74.843 78.564,74.843 C78.564,58.570 91.832,45.332 108.142,45.332 C108.142,45.332 165.752,45.332 165.752,45.332 C178.075,45.332 188.101,35.336 188.101,23.050 C188.101,23.050 188.101,23.035 188.101,23.035 C188.101,23.035 166.082,23.035 166.082,23.035 C164.086,23.035 162.468,21.416 162.468,19.420 C162.468,17.424 164.086,15.805 166.082,15.805 C166.082,15.805 195.330,15.805 195.330,15.805 C195.330,15.805 195.330,23.050 195.330,23.050 C195.330,39.322 182.062,52.562 165.752,52.562 C165.752,52.562 108.142,52.562 108.142,52.562 C95.819,52.562 85.793,62.556 85.793,74.843 C85.793,74.843 85.793,93.872 85.793,93.872 C85.793,95.867 84.174,97.486 82.178,97.486 Z" id="path-1" class="cls-3" fill-rule="evenodd"/>
    <path d="M99.202,203.930 C99.202,203.930 61.385,203.930 61.385,203.930 C61.385,203.930 61.385,93.871 61.385,93.871 C61.385,93.871 99.202,93.871 99.202,93.871 C99.202,93.871 99.202,203.930 99.202,203.930 Z" id="path-2" class="cls-4" fill-rule="evenodd"/>
    <path d="M16.948,23.035 C16.948,23.035 3.605,23.035 3.605,23.035 C1.609,23.035 -0.009,21.416 -0.009,19.420 C-0.009,17.424 1.609,15.805 3.605,15.805 C3.605,15.805 16.948,15.805 16.948,15.805 C18.944,15.805 20.563,17.424 20.563,19.420 C20.563,21.416 18.944,23.035 16.948,23.035 Z" id="path-3" class="cls-3" fill-rule="evenodd"/>
    <path d="M167.186,38.842 C167.186,38.842 16.948,38.842 16.948,38.842 C16.948,38.842 16.948,-0.001 16.948,-0.001 C16.948,-0.001 167.186,-0.001 167.186,-0.001 C167.186,-0.001 167.186,38.842 167.186,38.842 Z" id="path-4" class="cls-6" fill-rule="evenodd"/>
    <path d="M167.186,38.842 C167.186,38.842 16.948,38.842 16.948,38.842 C16.948,38.842 16.948,23.124 16.948,23.124 C16.948,23.124 167.186,23.124 167.186,23.124 C167.186,23.124 167.186,38.842 167.186,38.842 Z" id="path-5" class="cls-7" fill-rule="evenodd"/>
    <path d="M91.106,216.877 C91.106,216.877 69.482,216.877 69.482,216.877 C69.482,216.877 69.482,203.930 69.482,203.930 C69.482,203.930 91.106,203.930 91.106,203.930 C91.106,203.930 91.106,216.877 91.106,216.877 Z" id="path-6" class="cls-3" fill-rule="evenodd"/>
  </g>
</svg>
